packages/core/src/svgs/tokens/mono/DVF.svg

<svg width="24" height="24" viewBox="0 0 24 24" fill="none" xmlns="http://www.w3.org/2000/svg">
<path d="M5.58738 12.2058C4.74033 12.0998 4.41679 11.8646 4.36385 11.7645C4.28739 12.6999 4.62268 14.5645 6.55797 14.5645C8.48739 14.5645 9.04033 12.9998 9.07562 12.2117H9.19915C9.37556 12.5175 9.35799 12.9117 9.32272 13.0646C9.85897 13.2216 10.3314 13.5448 10.6718 13.9879C11.0123 14.431 11.2031 14.9707 11.2168 15.5293H12.0991C12.0991 13.9411 11.511 13.0293 11.2168 12.7882L11.3051 12.6235C11.7755 12.8749 12.1482 13.2767 12.3639 13.7646L12.5227 13.8233C13.7462 14.3704 14.6639 13.9823 14.9756 13.7175C14.7952 13.4186 14.6846 13.0829 14.652 12.7352H14.8932C14.905 12.8057 15.011 13.0881 15.352 13.6763C15.6521 14.1998 16.2051 14.3058 16.7461 14.4116C16.9638 14.4528 17.1815 14.494 17.3756 14.5588C17.9168 14.7528 17.9403 15.2881 17.8874 15.5293H18.4698V15.0586C18.4698 14.5292 18.1639 14.0763 17.8815 13.6645C17.6404 13.3117 17.4109 12.9881 17.4109 12.6646C17.4109 12.0939 17.7286 11.6705 17.8815 11.5293C17.7462 11.4881 17.6345 11.3293 17.4991 11.1352C17.2991 10.847 17.0462 10.4764 16.5403 10.3117C16.2947 10.2277 16.0343 10.1957 15.7756 10.2175C15.5168 10.2234 15.1521 10.2352 14.4403 10.1586C13.7814 10.0822 13.3815 9.74687 12.9521 9.39399C12.4226 8.94105 11.852 8.47046 10.7168 8.47046C9.08738 8.47046 8.54033 9.84103 8.46386 10.5292C8.29265 10.2543 8.03033 10.0483 7.72267 9.94699C7.72856 10.6764 7.55797 11.5704 6.84033 11.8705C6.2521 12.1175 5.76385 11.7058 5.58738 11.4705C5.35798 11.7176 5.49327 12.0587 5.58738 12.2058ZM9.99911 15.5293C10.1178 14.9889 10.0812 14.426 9.89329 13.9057L10.005 13.8469C10.6404 14.3293 10.7344 15.1881 10.6991 15.5293H9.99911ZM15.1462 13.9823C15.258 14.1352 15.6168 14.4764 16.1462 14.6175C16.0707 14.9571 15.9086 15.2711 15.6756 15.5293H14.8463C15.0579 15.294 15.3816 14.6352 15.011 14.1234L15.1462 13.9823Z" fill="white"/>
<path fill-rule="evenodd" clip-rule="evenodd" d="M12 22C14.6522 22 17.1957 20.9464 19.071 19.071C20.9464 17.1957 22 14.6522 22 12C22 9.34785 20.9464 6.80429 19.071 4.92892C17.1957 3.05357 14.6522 2 12 2C9.34785 2 6.80429 3.05357 4.92892 4.92892C3.05357 6.80429 2 9.34785 2 12C2 14.6522 3.05357 17.1957 4.92892 19.071C6.80429 20.9464 9.34785 22 12 22ZM12 21.4117C14.4961 21.4117 16.89 20.4202 18.6551 18.6551C20.4202 16.89 21.4117 14.4961 21.4117 12C21.4117 9.50377 20.4202 7.10991 18.6551 5.34487C16.89 3.57982 14.4961 2.58823 12 2.58823C9.50377 2.58823 7.10991 3.57982 5.34487 5.34487C3.57982 7.10991 2.58823 9.50377 2.58823 12C2.58823 14.4961 3.57982 16.89 5.34487 18.6551C7.10991 20.4202 9.50377 21.4117 12 21.4117Z" fill="white"/>
</svg>

<svg xmlns="http://www.w3.org/2000/svg" width="24" height="24" fill="none" viewBox="0 0 24 24">
    <path fill="#fff" d="M5.587 12.206c-.847-.106-1.17-.341-1.223-.441-.077.935.259 2.8 2.194 2.8 1.93 0 2.482-1.565 2.518-2.353h.123c.177.306.159.7.124.853a2.63 2.63 0 0 1 1.894 2.464h.882c0-1.588-.588-2.5-.882-2.74l.088-.165c.47.25.843.653 1.059 1.14l.159.06c1.223.546 2.14.158 2.453-.107a2.3 2.3 0 0 1-.324-.982h.241c.012.07.118.353.459.941.3.524.853.63 1.394.736.218.04.436.082.63.147.54.194.564.73.511.97h.583v-.47c0-.53-.306-.983-.588-1.394-.242-.353-.471-.677-.471-1 0-.571.318-.994.47-1.136-.135-.04-.247-.2-.382-.394-.2-.288-.453-.659-.959-.823a1.9 1.9 0 0 0-.764-.095c-.26.006-.624.018-1.336-.058-.659-.077-1.058-.412-1.488-.765-.53-.453-1.1-.924-2.235-.924-1.63 0-2.177 1.371-2.253 2.06a1.38 1.38 0 0 0-.741-.583c.006.73-.165 1.623-.883 1.924-.588.246-1.076-.165-1.253-.4-.229.247-.094.588 0 .735M10 15.529a2.93 2.93 0 0 0-.106-1.623l.112-.06c.635.483.73 1.342.694 1.683zm5.147-1.547c.112.153.47.494 1 .636-.075.34-.237.653-.47.911h-.83c.212-.235.536-.894.165-1.406z"/>
    <path fill="#fff" fill-rule="evenodd" d="M12 22a10 10 0 1 0 0-20 10 10 0 0 0 0 20m0-.588a9.412 9.412 0 1 0 0-18.824 9.412 9.412 0 0 0 0 18.824" clip-rule="evenodd"/>
</svg>
